src/assets/duotone/Avalanche.svg

<svg width="24" height="24" viewBox="0 0 24 24"  xmlns="http://www.w3.org/2000/svg">
<path d="M6.06033 15.5792L11.6703 5.96922C11.8303 5.68922 12.2303 5.66922 12.4203 5.92922L13.9803 8.01922C14.4303 8.61922 14.4603 9.42922 14.0703 10.0692L10.7303 15.4192C10.4003 15.9492 9.82034 16.2692 9.19034 16.2692H6.45035C6.10035 16.2592 5.88033 15.8792 6.06033 15.5792Z" />
<path d="M15.2401 12.3698L13.3201 15.5698C13.1401 15.8698 13.3601 16.2598 13.7101 16.2598H17.5501C17.9001 16.2598 18.1201 15.8798 17.9401 15.5698L16.0201 12.3698C15.8501 12.0798 15.4201 12.0798 15.2401 12.3698Z" />
<path opacity="0.4" d="M12 22C17.5228 22 22 17.5228 22 12C22 6.47715 17.5228 2 12 2C6.47715 2 2 6.47715 2 12C2 17.5228 6.47715 22 12 22Z" />
</svg>

<?xml version="1.0" encoding="UTF-8"?>
<svg width="24" height="24" viewBox="0 0 24 24" xmlns="http://www.w3.org/2000/svg">
 <path d="m6.0603 15.579 5.61-9.61c0.16-0.28 0.56-0.3 0.75-0.04l1.56 2.09c0.45 0.6 0.48 1.41 0.09 2.05l-3.34 5.35c-0.33 0.53-0.90996 0.85-1.54 0.85h-2.74c-0.35-0.01-0.57002-0.39-0.39002-0.69z"/>
 <path d="m15.24 12.37-1.92 3.2c-0.18 0.3 0.04 0.69 0.39 0.69h3.84c0.35 0 0.57-0.38 0.39-0.69l-1.92-3.2c-0.17-0.29-0.6-0.29-0.78 0z"/>
 <path d="m12 22c5.5228 0 10-4.4772 10-10 0-5.5228-4.4772-10-10-10-5.5228 0-10 4.4772-10 10 0 5.5228 4.4772 10 10 10z" opacity=".4"/>
</svg>
